X: 12
T: Bunch Of Keys, The
Z: coppers and brass
S: https://thesession.org/tunes/344#setting49614
R: reel
M: 4/4
L: 1/8
K: Gdor
|:DGG^F ~G2 Ac|BG ~G2 DGBG|DFFE FAcB|AF ~F2 CFAF||
DGG^F ~G2 Ac|BGGA Bcde|fefd cAFA |BGAF DG G2 :|
|:dggf ~g2 dg |~g2 dg agfd |cffe ~f2cf |fgag f2ef|
dggf ~g2 dg |~g2 dg agfd |cf~f2 cAFA |BGAF DG G2 :|
|:BG~G2 BGdc |BG~G2 Bcdc | AF~F2 AFcF |AF~F2 Acdc |
BG~G2 DG~G2 |BGGA Bcde |fefd cAFA |BGAF DG G2 :|

%-------------------- TUNE SEPARATOR --------------------%

